X: 42818
T: Whose?
R: jig
M: 6/8
K: Gmajor
|:D3|G2 G F2 F|GFG D2 D|E2 E c2 B|A3A2 D|
E2 c cBc|d2 B G2 D|E2 c B2 A|G3:|
|:GBc|d2 d ded|^c2 A A2 B|=c2 c cBA|B3 d3|
e2 c A2 e|d2 B G2 B|d2 d cAF|G3:|

